public/img/home/carousel/arrow-prev.svg

<svg fill="none" height="30" viewBox="0 0 30 30" width="30" xmlns="http://www.w3.org/2000/svg"><rect height="28" rx="5" stroke="#005bbf" stroke-width="2" width="28" x="1" y="1"/><path d="m7.29289 14.2929c-.39052.3905-.39052 1.0237 0 1.4142l6.36401 6.364c.3905.3905 1.0236.3905 1.4142 0 .3905-.3906.3905-1.0237 0-1.4142l-5.65689-5.6569 5.65689-5.65685c.3905-.39053.3905-1.02369 0-1.41422-.3906-.39052-1.0237-.39052-1.4142 0zm14.70711-.2929h-14v2h14z" fill="#fff"/></svg>

<svg width="30" height="30" viewBox="0 0 30 30" fill="none" xmlns="http://www.w3.org/2000/svg">
<rect x="1" y="1" width="28" height="28" rx="5" stroke="#005BBF" stroke-width="2"/>
<path d="M7.29289 14.2929C6.90237 14.6834 6.90237 15.3166 7.29289 15.7071L13.6569 22.0711C14.0474 22.4616 14.6805 22.4616 15.0711 22.0711C15.4616 21.6805 15.4616 21.0474 15.0711 20.6569L9.41421 15L15.0711 9.34315C15.4616 8.95262 15.4616 8.31946 15.0711 7.92893C14.6805 7.53841 14.0474 7.53841 13.6569 7.92893L7.29289 14.2929ZM22 14L8 14L8 16L22 16L22 14Z" fill="white"/>
</svg>
